icons/fahrenheit-fill.svg

<svg viewBox="0 0 24 24" fill="currentColor" xmlns="http://www.w3.org/2000/svg"><path d="M12 12H19V14H12V21H10V8C10 5.79086 11.7909 4 14 4H21V6H14C12.8954 6 12 6.89543 12 8V12ZM4.5 10C2.567 10 1 8.433 1 6.5C1 4.567 2.567 3 4.5 3C6.433 3 8 4.567 8 6.5C8 8.433 6.433 10 4.5 10ZM4.5 8C5.32843 8 6 7.32843 6 6.5C6 5.67157 5.32843 5 4.5 5C3.67157 5 3 5.67157 3 6.5C3 7.32843 3.67157 8 4.5 8Z"/></svg>

<svg xmlns="http://www.w3.org/2000/svg" viewBox="0 0 24 24">
    <g>
        <path fill="none" d="M0 0h24v24H0z"/>
        <path d="M12 12h7v2h-7v7h-2V8a4 4 0 0 1 4-4h7v2h-7a2 2 0 0 0-2 2v4zm-7.5-2a3.5 3.5 0 1 1 0-7 3.5 3.5 0 0 1 0 7zm0-2a1.5 1.5 0 1 0 0-3 1.5 1.5 0 0 0 0 3z"/>
    </g>
</svg>
